trunk/public/assets/images/icons/grey/move_left/smiley.svg

<svg width="16" height="16" xmlns="http://www.w3.org/2000/svg" viewBox="0 0 16 16" shape-rendering="geometricPrecision" fill="#6e6e6e"><defs><mask id="a"><rect fill="#fff" width="100%" height="100%"/><path fill="#000" d="M16.383 1.058l-2.47-2.473-4.51 4.512 4.51 4.506 2.47-2.47-2.035-2.038z"/></mask></defs><path fill="#cb1800" d="M12.935 3.095l2.035-2.037L13.913 0l-3.096 3.097 3.096 3.092 1.057-1.057"/><path mask="url(#a)" d="M8 1.05C4.162 1.05 1.05 4.163 1.05 8S4.16 14.95 8 14.95c3.837 0 6.95-3.112 6.95-6.95S11.836 1.05 8 1.05zm1.973 3.457c.73 0 1.326.756 1.326 1.682 0 .926-.596 1.682-1.327 1.682-.73 0-1.325-.756-1.325-1.683s.594-1.683 1.325-1.683zm-3.667-.042c.73 0 1.326.755 1.326 1.68 0 .93-.595 1.684-1.326 1.684-.73 0-1.325-.756-1.325-1.684 0-.926.595-1.68 1.326-1.68zm1.852 9.08c-4.853 0-5.388-5.017-5.388-5.017s1.11 3.248 5.347 3.248c4.154 0 5.182-3.085 5.182-3.085s-.74 4.856-5.142 4.856z"/></svg>

<?xml version="1.0"?><!DOCTYPE svg PUBLIC "-//W3C//DTD SVG 1.1//EN" "http://www.w3.org/Graphics/SVG/1.1/DTD/svg11.dtd"><svg width="16px" height="16px" xmlns="http://www.w3.org/2000/svg" viewBox="0 0 16 16" shape-rendering="geometricPrecision" fill="#6e6e6e"><defs><mask id="move_left-path"><rect fill="#fff" width="100%" height="100%"/><polygon points="16.383,1.058 13.913,-1.415 9.403,3.097 13.914,7.603 16.383,5.134 14.348,3.095 " fill="#000"/></mask></defs><polygon points="12.935,3.095 14.97,1.058 13.913,0 10.817,3.097 13.913,6.189 14.97,5.133 " fill="#cb1800"/><path mask="url(#move_left-path)" d="M8,1.051c-3.838,0-6.949,3.111-6.949,6.95c0,3.837,3.11,6.948,6.949,6.948c3.837,0,6.949-3.111,6.949-6.948 C14.949,4.162,11.837,1.051,8,1.051z M9.973,4.507c0.731,0,1.326,0.756,1.326,1.682c0,0.927-0.595,1.683-1.326,1.683 c-0.73,0-1.325-0.756-1.325-1.683C8.647,5.263,9.242,4.507,9.973,4.507z M6.306,4.465c0.731,0,1.326,0.755,1.326,1.681 c0,0.928-0.595,1.683-1.326,1.683c-0.73,0-1.325-0.755-1.325-1.683C4.98,5.22,5.575,4.465,6.306,4.465z M8.158,13.546 c-4.853,0-5.388-5.018-5.388-5.018s1.111,3.248,5.347,3.248c4.154,0,5.182-3.085,5.182-3.085S12.559,13.546,8.158,13.546z"/></svg>
